Simply-Cyan-Circles/scalable/panel/weather-freezing-rain.svg

<svg xmlns="http://www.w3.org/2000/svg" width="24" height="24"><path d="M12 .967a6 6 0 0 0-6 6 6 6 0 0 0 .004.129A4 4 0 0 0 3 10.966a4 4 0 0 0 4 4h9a5 5 0 0 0 5-5 5 5 0 0 0-3.242-4.675A6 6 0 0 0 12 .967zm0 1a5 5 0 0 1 4.92 4.111A4 4 0 0 1 20 9.967a4 4 0 0 1-4 4H7a3 3 0 0 1-3-3 3 3 0 0 1 3-3 3 3 0 0 1 .107.006A5 5 0 0 1 7 6.967a5 5 0 0 1 5-5zM5 16v2h2v-2H5zm4 0v2h2v-2H9zm4.418 0a.418.418 0 0 0-.418.418v2.164c0 .231.187.418.418.418h.164a.418.418 0 0 0 .418-.418v-2.164a.418.418 0 0 0-.418-.418h-.164zm4 0a.418.418 0 0 0-.418.418v2.164c0 .231.187.418.418.418h.164a.418.418 0 0 0 .418-.418v-2.164a.418.418 0 0 0-.418-.418h-.164zM7 20v2h2v-2H7zm4.418 0a.418.418 0 0 0-.418.418v2.164c0 .231.187.418.418.418h.164a.418.418 0 0 0 .418-.418v-2.164a.418.418 0 0 0-.418-.418h-.164zm4 0a.418.418 0 0 0-.418.418v2.164c0 .231.187.418.418.418h.164a.418.418 0 0 0 .418-.418v-2.164a.418.418 0 0 0-.418-.418h-.164z" fill="#5beedc"/></svg>

<?xml version="1.0" encoding="UTF-8" standalone="no"?>
<svg
   xmlns:dc="http://purl.org/dc/elements/1.1/"
   xmlns:cc="http://creativecommons.org/ns#"
   xmlns:rdf="http://www.w3.org/1999/02/22-rdf-syntax-ns#"
   xmlns:svg="http://www.w3.org/2000/svg"
   xmlns="http://www.w3.org/2000/svg"
   xmlns:sodipodi="http://sodipodi.sourceforge.net/DTD/sodipodi-0.dtd"
   xmlns:inkscape="http://www.inkscape.org/namespaces/inkscape"
   width="24"
   height="24"
   version="1.1"
   id="svg4"
   sodipodi:docname="weather-freezing-rain.svg"
   inkscape:version="0.92.4 (5da689c313, 2019-01-14)">
  <metadata
     id="metadata10">
    <rdf:RDF>
      <cc:Work
         rdf:about="">
        <dc:format>image/svg+xml</dc:format>
        <dc:type
           rdf:resource="http://purl.org/dc/dcmitype/StillImage" />
        <dc:title></dc:title>
      </cc:Work>
    </rdf:RDF>
  </metadata>
  <defs
     id="defs8" />
  <sodipodi:namedview
     pagecolor="#ffffff"
     bordercolor="#666666"
     borderopacity="1"
     objecttolerance="10"
     gridtolerance="10"
     guidetolerance="10"
     inkscape:pageopacity="0"
     inkscape:pageshadow="2"
     inkscape:window-width="1087"
     inkscape:window-height="480"
     id="namedview6"
     showgrid="false"
     inkscape:zoom="9.8333333"
     inkscape:cx="1.0677966"
     inkscape:cy="12"
     inkscape:window-x="0"
     inkscape:window-y="25"
     inkscape:window-maximized="0"
     inkscape:current-layer="svg4" />
  <path
     d="m 12,0.967 a 6,6 0 0 0 -6,6 6,6 0 0 0 0.004,0.129 4,4 0 0 0 -3.004,3.87 4,4 0 0 0 4,4 h 9 a 5,5 0 0 0 5,-5 A 5,5 0 0 0 17.758,5.291 6,6 0 0 0 12,0.967 Z m 0,1 a 5,5 0 0 1 4.92,4.111 4,4 0 0 1 3.08,3.889 4,4 0 0 1 -4,4 H 7 a 3,3 0 0 1 -3,-3 3,3 0 0 1 3,-3 A 3,3 0 0 1 7.107,7.973 5,5 0 0 1 7,6.967 a 5,5 0 0 1 5,-5 z M 5,16 v 2 h 2 v -2 z m 4,0 v 2 h 2 v -2 z m 4.418,0 A 0.418,0.418 0 0 0 13,16.418 v 2.164 C 13,18.813 13.187,19 13.418,19 h 0.164 A 0.418,0.418 0 0 0 14,18.582 V 16.418 A 0.418,0.418 0 0 0 13.582,16 Z m 4,0 A 0.418,0.418 0 0 0 17,16.418 v 2.164 C 17,18.813 17.187,19 17.418,19 h 0.164 A 0.418,0.418 0 0 0 18,18.582 V 16.418 A 0.418,0.418 0 0 0 17.582,16 Z M 7,20 v 2 h 2 v -2 z m 4.418,0 A 0.418,0.418 0 0 0 11,20.418 v 2.164 C 11,22.813 11.187,23 11.418,23 h 0.164 A 0.418,0.418 0 0 0 12,22.582 V 20.418 A 0.418,0.418 0 0 0 11.582,20 Z m 4,0 A 0.418,0.418 0 0 0 15,20.418 v 2.164 C 15,22.813 15.187,23 15.418,23 h 0.164 A 0.418,0.418 0 0 0 16,22.582 V 20.418 A 0.418,0.418 0 0 0 15.582,20 Z"
     id="path2"
     inkscape:connector-curvature="0"
     style="fill:#5beedc" />
</svg>
